img/advantages-2.svg

<svg width="67" height="66" viewBox="0 0 67 66" fill="none" xmlns="http://www.w3.org/2000/svg">
<path d="M40.8281 49.0746H11.0707V35.0625C11.0707 30.0996 15.1535 26.0777 20.1916 26.0777H40.8281V49.0746Z" fill="#CEE8FA"/>
<path d="M40.8281 50.9437H11.0707C10.0238 50.9437 9.17322 50.1058 9.17322 49.0746V35.0625C9.17322 29.0812 14.1197 24.2086 20.1916 24.2086H40.8281C41.875 24.2086 42.7256 25.0465 42.7256 26.0777V49.0746C42.7256 50.1058 41.875 50.9437 40.8281 50.9437ZM12.9681 47.2054H38.9176V27.9597H20.1785C16.2004 27.9597 12.9681 31.1437 12.9681 35.0625V47.2054Z" fill="#2D527C"/>
<path d="M60.4439 34.2633H6.55605C2.94434 34.2633 0 31.3629 0 27.7922V21.9785C0 18.4207 2.94434 15.5203 6.55605 15.5203H20.1262C21.173 15.5203 22.0236 16.3582 22.0236 17.3894C22.0236 18.4207 21.173 19.2586 20.1262 19.2586H6.55605C5.03809 19.2586 3.79492 20.4832 3.79492 21.9785V27.7922C3.79492 29.2875 5.03809 30.5121 6.55605 30.5121H60.4309C61.9488 30.5121 63.192 29.2875 63.192 27.7922V21.9785C63.192 20.4832 61.9488 19.2586 60.4309 19.2586H33.5C32.4531 19.2586 31.6025 18.4207 31.6025 17.3894C31.6025 16.3582 32.4531 15.5203 33.5 15.5203H60.4439C64.0557 15.5203 67 18.4207 67 21.9785V27.7922C67 31.3629 64.0557 34.2633 60.4439 34.2633Z" fill="#F0BF5F"/>
<path d="M33.5 19.1555C32.9111 19.1555 32.3484 18.8977 31.9689 18.3949C31.3408 17.557 31.524 16.384 32.3615 15.7781C34.1543 14.4633 37.8707 11.0086 37.8707 8.70117C37.8707 6.20039 36.0256 4.3957 33.5 4.3957C31.0922 4.3957 29.1293 6.3293 29.1293 8.70117C29.1293 9.73242 28.2787 10.5703 27.2318 10.5703C26.1849 10.5703 25.3344 9.73242 25.3344 8.70117V8.53359C25.3344 8.48203 25.3343 8.43047 25.3474 8.37891C25.5045 4.07344 29.1031 0.644531 33.5 0.644531C38.1586 0.644531 41.6787 4.11211 41.6787 8.70117C41.6787 13.5223 35.3582 18.266 34.6254 18.7945C34.2851 19.0395 33.8926 19.1555 33.5 19.1555Z" fill="#F0BF5F"/>
<path d="M47.5412 61.2562H22.377C21.3301 61.2562 20.4795 60.4183 20.4795 59.3871V49.0875C20.4795 48.0562 21.3301 47.2183 22.377 47.2183H55.9424C56.9893 47.2183 57.8398 48.0562 57.8398 49.0875C57.8398 50.1187 56.9893 50.9566 55.9424 50.9566H24.2744V57.5179H47.5412C48.5881 57.5179 49.4387 58.3558 49.4387 59.3871C49.4387 60.4183 48.5881 61.2562 47.5412 61.2562Z" fill="#2D527C"/>
<path d="M55.9293 49.0746V33.5672C55.9293 29.4293 52.5269 26.0777 48.3264 26.0777H22.377V49.0746H55.9293Z" fill="#CEE8FA"/>
<path d="M55.9293 50.9437H22.377C21.3301 50.9437 20.4795 50.1059 20.4795 49.0746V26.0906C20.4795 25.0594 21.3301 24.2215 22.377 24.2215H48.3395C53.5738 24.2215 57.8398 28.4238 57.8398 33.5801V49.0875C57.8398 50.1058 56.9762 50.9437 55.9293 50.9437ZM24.2744 47.2055H54.0318V33.5672C54.0318 30.4734 51.4801 27.9597 48.3395 27.9597H24.2744V47.2055Z" fill="#2D527C"/>
<path d="M22.377 65.3554C21.3301 65.3554 20.4795 64.5175 20.4795 63.4863V59.3871C20.4795 58.3558 21.3301 57.5179 22.377 57.5179C23.4238 57.5179 24.2744 58.3558 24.2744 59.3871V63.4863C24.2744 64.5175 23.4238 65.3554 22.377 65.3554Z" fill="#2D527C"/>
<path d="M55.9293 65.3554C54.8824 65.3554 54.0319 64.5176 54.0319 63.4863V47.8758C54.0319 46.8445 54.8824 46.0066 55.9293 46.0066C56.9762 46.0066 57.8268 46.8445 57.8268 47.8758V63.4863C57.8399 64.5176 56.9762 65.3554 55.9293 65.3554Z" fill="#2D527C"/>
<path d="M47.5412 65.3554C46.4943 65.3554 45.6437 64.5175 45.6437 63.4863V59.3871C45.6437 58.3558 46.4943 57.5179 47.5412 57.5179C48.5881 57.5179 49.4387 58.3558 49.4387 59.3871V63.4863C49.4387 64.5175 48.5881 65.3554 47.5412 65.3554Z" fill="#2D527C"/>
<path d="M39.1531 65.3554C38.1063 65.3554 37.2557 64.5175 37.2557 63.4863V59.3871C37.2557 58.3558 38.1063 57.5179 39.1531 57.5179C40.2 57.5179 41.0506 58.3558 41.0506 59.3871V63.4863C41.0506 64.5175 40.2 65.3554 39.1531 65.3554Z" fill="#2D527C"/>
<path d="M30.765 65.3554C29.7181 65.3554 28.8676 64.5175 28.8676 63.4863V59.3871C28.8676 58.3558 29.7181 57.5179 30.765 57.5179C31.8119 57.5179 32.6625 58.3558 32.6625 59.3871V63.4863C32.6625 64.5175 31.8119 65.3554 30.765 65.3554Z" fill="#2D527C"/>
</svg>

<svg width="67" height="66" fill="none" xmlns="http://www.w3.org/2000/svg"><path d="M40.828 49.075H11.071V35.062c0-4.962 4.082-8.984 9.12-8.984h20.637v22.997Z" fill="#CEE8FA"/><path d="M40.828 50.944H11.071c-1.047 0-1.898-.838-1.898-1.87V35.064c0-5.982 4.947-10.854 11.019-10.854h20.636c1.047 0 1.898.838 1.898 1.869v22.997c0 1.03-.851 1.869-1.898 1.869Zm-27.86-3.739h25.95V27.96h-18.74c-3.978 0-7.21 3.184-7.21 7.102v12.143Z" fill="#2D527C"/><path d="M60.444 34.263H6.556c-3.612 0-6.556-2.9-6.556-6.47v-5.814c0-3.558 2.944-6.459 6.556-6.459h13.57c1.047 0 1.898.838 1.898 1.87 0 1.03-.851 1.869-1.898 1.869H6.556c-1.518 0-2.761 1.224-2.761 2.72v5.813c0 1.495 1.243 2.72 2.761 2.72h53.875c1.518 0 2.761-1.224 2.761-2.72v-5.814c0-1.495-1.243-2.72-2.761-2.72H33.5c-1.047 0-1.898-.837-1.898-1.869 0-1.03.851-1.869 1.898-1.869h26.944c3.612 0 6.556 2.9 6.556 6.459v5.813c0 3.57-2.944 6.471-6.556 6.471Z" fill="#F0BF5F"/><path d="M33.5 19.155a1.894 1.894 0 0 1-1.531-.76 1.851 1.851 0 0 1 .392-2.617c1.793-1.315 5.51-4.77 5.51-7.077 0-2.5-1.845-4.305-4.371-4.305-2.408 0-4.37 1.933-4.37 4.305 0 1.031-.851 1.87-1.898 1.87s-1.898-.839-1.898-1.87v-.167c0-.052 0-.104.013-.155C25.504 4.073 29.103.645 33.5.645c4.659 0 8.179 3.467 8.179 8.056 0 4.821-6.32 9.565-7.054 10.093-.34.245-.732.361-1.125.361Z" fill="#F0BF5F"/><path d="M47.541 61.256H22.377c-1.047 0-1.897-.838-1.897-1.869v-10.3c0-1.03.85-1.869 1.897-1.869h33.565c1.047 0 1.898.838 1.898 1.87 0 1.03-.85 1.869-1.898 1.869H24.274v6.56h23.267c1.047 0 1.898.839 1.898 1.87 0 1.031-.85 1.87-1.898 1.87Z" fill="#2D527C"/><path d="M55.93 49.075V33.567c0-4.138-3.403-7.49-7.604-7.49H22.377v22.998h33.552Z" fill="#CEE8FA"/><path d="M55.93 50.944H22.376c-1.047 0-1.897-.838-1.897-1.87V26.092c0-1.032.85-1.87 1.897-1.87H48.34c5.234 0 9.5 4.203 9.5 9.36v15.506c0 1.019-.864 1.857-1.91 1.857Zm-31.656-3.739h29.758V33.568c0-3.094-2.552-5.607-5.692-5.607H24.274v19.245ZM22.377 65.355c-1.047 0-1.897-.838-1.897-1.869v-4.099c0-1.031.85-1.87 1.897-1.87 1.047 0 1.897.839 1.897 1.87v4.1c0 1.03-.85 1.868-1.897 1.868Z" fill="#2D527C"/><path d="M55.93 65.355c-1.048 0-1.898-.837-1.898-1.869v-15.61c0-1.032.85-1.87 1.897-1.87 1.047 0 1.898.838 1.898 1.87v15.61c.013 1.032-.85 1.87-1.898 1.87ZM47.541 65.355c-1.047 0-1.897-.838-1.897-1.869v-4.099c0-1.031.85-1.87 1.897-1.87 1.047 0 1.898.839 1.898 1.87v4.1c0 1.03-.85 1.868-1.898 1.868ZM39.153 65.355c-1.047 0-1.897-.838-1.897-1.869v-4.099c0-1.031.85-1.87 1.897-1.87 1.047 0 1.898.839 1.898 1.87v4.1c0 1.03-.851 1.868-1.898 1.868ZM30.765 65.355c-1.047 0-1.897-.838-1.897-1.869v-4.099c0-1.031.85-1.87 1.897-1.87 1.047 0 1.898.839 1.898 1.87v4.1c0 1.03-.851 1.868-1.898 1.868Z" fill="#2D527C"/></svg>
